X:1
T:[ID 2-26b]
T:[ID 2-26b]
T:Bezeichnung standardisiert: Menuett Menuet 5. \"Ahnlich in dieser Quelle: ID 2-26b (Anm. S. Wascher);
T:Urheber unbekannt Datum in der hier transkribierten schriftlichen Quelle: 1776 - 1791
C:Urheber unbekannt
C:Datum in der hier transkribierten schriftlichen Quelle: 1776 - 1791
L:1/8
M:3/4
K:D
V:1 treble 
V:1
 d3 fec | d4 (3cde | dAFD Ec | d4 AG | F2 d2 cB | Aa ^gfed |{d} c2 BA^GB | A6 :: A4 (3FED | %9
 BGDB, G,2 | B4 (3^GFE | cAEC A,2 | e4 (3cBA | fdAF Da | g2 f2 ec | d6 :| %16

